X:676
T:Angus Campbell
M:2/4
R:reel
L:1/16
K:A
E2|A2cA EAce|a2ga faec|d2Bd c2Ac|BFBA GEFG|
A2cA EAce|a2ga faec|defd ceaf|dcdB A2:|
|:(3efg|a2ea caAa|cAce aAca|ebgb ebgb|gefg agfe|
a2ea caAa|cAce aecA|defd ceaf|ecdB A2:|
